X: 22003
T: Kitty's Rambles
R: jig
M: 6/8
K: Dmixolydian
|:FDD c2A|ded efg|fed cAG|FAF GFE|
FDD c2A|ded efg|fed cAG|1 Ad^c dAG:|2 FAd d2^c||
|:dfa dfa|dfa afd|ceg ceg|ceg gfe|
fdf ~g3|agf efg|fed cAG|1 Ad^c d2^c:|2 Ad^c dfg||
|:afd ded|Adf afd|gec cBc|Ece gfe|
~f3 ~g3|aza efg|efd cAG|1 Ad^c de/f/g:|2 Ad^c dAG||

